packages/hms_room_kit/lib/src/assets/icons/leave.svg

<svg width="25" height="24" viewBox="0 0 25 24" fill="none" xmlns="http://www.w3.org/2000/svg">
<g id="Icon">
<path id="Vector" fill-rule="evenodd" clip-rule="evenodd" d="M19.3789 8.60091C19.4032 8.60385 19.4273 8.60799 19.4512 8.6133C20.496 8.84544 21.4305 9.42697 22.1002 10.2619C22.77 11.0968 23.135 12.1351 23.1349 13.2054V13.9874C23.1349 14.5359 22.9171 15.0619 22.5292 15.4497C22.1414 15.8375 21.6154 16.0554 21.0669 16.0554H17.7719C17.2235 16.0554 16.6975 15.8375 16.3097 15.4497C15.9218 15.0619 15.704 14.5359 15.704 13.9874C15.704 13.8368 15.6441 13.6923 15.5376 13.5858C15.4311 13.4793 15.2866 13.4194 15.136 13.4194H9.86397C9.71333 13.4194 9.56886 13.4793 9.46234 13.5858C9.35582 13.6923 9.29597 13.8368 9.29597 13.9874C9.29597 14.5359 9.0781 15.0619 8.69027 15.4497C8.30245 15.8375 7.77644 16.0554 7.22798 16.0554H3.93299C3.38452 16.0554 2.85852 15.8375 2.47069 15.4497C2.08287 15.0619 1.86499 14.5359 1.86499 13.9874V13.2057M19.3789 8.60091C14.8348 7.72638 10.1657 7.72547 5.62125 8.59824C5.59691 8.60119 5.57271 8.60533 5.54874 8.61066C4.50336 8.84292 3.56852 9.42491 2.89871 10.2605C2.22902 11.0959 1.86437 12.135 1.86499 13.2057M5.72107 9.34281V9.38631L5.78573 9.67733L5.72107 9.34281ZM5.86306 10.0774C5.15548 10.2372 4.52295 10.6325 4.06908 11.1987C3.61287 11.7678 3.36449 12.4755 3.36499 13.2049L3.36499 13.9874C3.36499 14.1381 3.42483 14.2825 3.53135 14.3891C3.63787 14.4956 3.78235 14.5554 3.93299 14.5554H7.22798C7.37862 14.5554 7.52309 14.4956 7.62961 14.3891C7.73613 14.2825 7.79597 14.1381 7.79597 13.9874C7.79597 13.439 8.01385 12.913 8.40168 12.5251C8.7895 12.1373 9.3155 11.9194 9.86397 11.9194H15.136C15.6844 11.9194 16.2104 12.1373 16.5982 12.5251C16.9861 12.913 17.204 13.439 17.204 13.9874C17.204 14.1381 17.2638 14.2825 17.3703 14.3891C17.4768 14.4956 17.6213 14.5554 17.7719 14.5554H21.0669C21.2176 14.5554 21.3621 14.4956 21.4686 14.3891C21.5751 14.2825 21.6349 14.1381 21.6349 13.9874V13.2054C21.635 12.4764 21.3864 11.7691 20.9302 11.2005C20.4829 10.6429 19.8623 10.2512 19.1674 10.0871C19.157 10.0856 19.1466 10.0838 19.1362 10.0818C14.7528 9.23273 10.2472 9.23185 5.8634 10.0792L5.86306 10.0774Z" fill="#FFEDEC"/>
</g>
</svg>

<svg xmlns="http://www.w3.org/2000/svg" width="25" height="24" fill="none" viewBox="0 0 25 24"><path fill="#FFEDEC" fill-rule="evenodd" d="M19.379 8.6a.747.747 0 0 1 .072.013 4.704 4.704 0 0 1 3.684 4.592v.782a2.068 2.068 0 0 1-2.068 2.068h-3.295a2.068 2.068 0 0 1-2.068-2.068.568.568 0 0 0-.568-.568H9.864a.568.568 0 0 0-.568.568 2.068 2.068 0 0 1-2.068 2.068H3.933a2.068 2.068 0 0 1-2.068-2.068v-.781M19.379 8.6a36.435 36.435 0 0 0-13.83.01 4.704 4.704 0 0 0-3.684 4.595m3.856-3.863v.043l.065.291-.065-.334Zm.142.734a3.204 3.204 0 0 0-2.498 3.128v.782a.568.568 0 0 0 .568.568h3.295a.568.568 0 0 0 .568-.568 2.068 2.068 0 0 1 2.068-2.068h5.272a2.068 2.068 0 0 1 2.068 2.068.568.568 0 0 0 .568.568h3.295a.568.568 0 0 0 .568-.568v-.782a3.203 3.203 0 0 0-2.499-3.123 34.934 34.934 0 0 0-13.273-.003v-.002Z" clip-rule="evenodd"/></svg>
